mobile/apps/auth/assets/custom-icons/icons/notesnook.svg

<svg xmlns="http://www.w3.org/2000/svg" fill="none" viewBox="0 0 1024 1024"><g clip-path="url(#a)"><path fill="#000" d="M1024 0H0v1024h1024V0Z"/><path fill="#fff" d="M724.985 682.919A225.057 225.057 0 0 1 287 610.064v-110.25l79.121 33.053v77.152a145.584 145.584 0 0 0 49.804 109.688c2.97 2.587 6.053 5.107 9.236 7.459a145.194 145.194 0 0 0 80.494 28.597c.99 0 1.946.079 2.925.101.979.023 2.25 0 3.375 0h3.375c1.125 0 1.935 0 2.925-.101a145.267 145.267 0 0 0 80.471-28.575c3.173-2.351 6.255-4.86 9.237-7.447a145.958 145.958 0 0 0 43.582-67.5l73.44 30.678ZM737 414v196.065c0 2.531 0 5.074-.158 7.605l-78.963-33.019V414a145.894 145.894 0 0 0-40.725-101.066 145.893 145.893 0 0 0-202-8.003 145.889 145.889 0 0 0-48.594 97.526 156.794 156.794 0 0 0-.439 11.543v48.712L287 429.637V189h225a224.999 224.999 0 0 1 225 225Z"/></g><defs><clipPath id="a"><rect width="1024" height="1024" fill="#fff" rx="200"/></clipPath></defs></svg>

<svg width="1024" height="1024" viewBox="0 0 1024 1024" fill="none" xmlns="http://www.w3.org/2000/svg">
<g clip-path="url(#clip0_24_33)">
<path d="M1024 0H0V1024H1024V0Z" fill="black"/>
<path d="M724.985 682.919C707.73 733.33 673.15 775.984 627.397 803.291C581.645 830.598 527.687 840.787 475.128 832.044C422.568 823.301 374.814 796.194 340.365 755.546C305.916 714.898 287.006 663.347 287 610.064V499.814L366.121 532.867V610.019C366.114 630.798 370.555 651.337 379.145 670.256C387.735 689.176 400.276 706.037 415.925 719.707C418.895 722.294 421.978 724.814 425.161 727.166C448.518 744.554 476.563 754.518 505.655 755.763C506.645 755.763 507.601 755.842 508.58 755.864C509.559 755.887 510.83 755.864 511.955 755.864C513.08 755.864 514.205 755.864 515.33 755.864C516.455 755.864 517.265 755.864 518.255 755.763C547.336 754.515 575.371 744.56 598.726 727.188C601.899 724.837 604.981 722.328 607.963 719.741C628.519 701.761 643.619 678.375 651.545 652.241L724.985 682.919Z" fill="white"/>
<path d="M737 414V610.065C737 612.596 737 615.139 736.842 617.67L657.879 584.651V414C657.866 376.316 643.272 340.099 617.154 312.934C591.035 285.77 555.419 269.766 517.765 268.274C480.11 266.782 443.339 279.918 415.154 304.931C386.968 329.944 369.554 364.893 366.56 402.457C366.279 406.26 366.121 410.119 366.121 414V462.712L287 429.637V189H512C571.674 189 628.903 212.705 671.099 254.901C713.295 297.097 737 354.326 737 414Z" fill="white"/>
</g>
<defs>
<clipPath id="clip0_24_33">
<rect width="1024" height="1024" rx="200" fill="white"/>
</clipPath>
</defs>
</svg>
